X:1
T:Reuben and Rachel
M:4/4
L:1/4
K:Eb
 E E E E| E c B G| E E E E| E c B2| e e d B| c c B G| E3/2 F/2 G E|\
 C D E2| E E E E| E c B G| E E E E| E c B2| e e d B| c c B G| E3/2 F/2 G E|\
 C D E2| E/2D/2 E/2D/2 E2| E c B G| E/2D/2 E/2D/2 E2| E c B2| e e d B|\
 c c B G| E3/2 F/2 G E| C D E2|
